X:1
T:Questi ch'inditio
T:Questi ch'inditio
T:Noé Faignient
T:Source: Harmonia celeste---Anversa---P.Phalesio & G.Bellero---1583. Editor: André Vierendeels (27/11/13).
C:Noé Faignient
%%score [ 1 2 3 4 ]
L:1/8
Q:1/4=100
M:2/2
K:C
V:1 treble nm="Canto" snm="C"
V:2 treble nm="Alto" snm="A"
V:3 treble-8 nm="Tenor 1" snm="T1"
V:4 treble-8 nm="Tenor 2" snm="T2"
V:1
 G4 G4 | G2 G4 G2 | A4 B4 | c8- | c4 B4 | A8 | A4 z2 d2 | B4 z2 e2 | c4 z2 f2 | d2 d2 ed d2- | %10
w: Que- sti|ch'in- di- tio|fan del|mio|_ tor-|men-|to, so-|spir, so-|spir, so-|spir no so- * *|
 dc/B/ ^c2 d4 | z2 A2 B4 | c2 c2 c4 | B2 B2 A4 | B8 | z8 | z8 | z4 c4 | B4 A2 G2- | G2 F2 E4 | %20
w: * * * * no,|ne'i so-|spir, ne'i so-|spir son ta-|li,|||quel-|l'i'han trie- gua|_ tal hor|
 G4 A2 c2 | B4 c4 | z8 | z4 G4 | A2 c2 B4 | c4 e4 | d4 d4 | ^c4 d2 e2- | e2 f2 d4- | d4 d4 | c8 | %31
w: io mai no|sen- to,||io|mai no sen-|to, ch'il|pet- to|mio men la|_ sua pen'-|* es-|ha-|
 B8 | d4 e4 | z8 | z8 | A4 B4 | G4 A2 c2 | B2 d2 c2 B2 | A4 B4 | G4 G2 G2 | c2 c2 d2 f2 | %41
w: li|A- mor,|||A- mor|che m'ar- d'il|cor fa que- sto|ven- to,|A- mor che|m'ar- d'il cor fa|
 f2 d2 d4 | B4 z2 B2 | c2 d2 e2 d2 | c2 B2 c2 c2 | B4 A4 | e4 f2 e2 | d2 ^c2 d2 e2- | e2 d3 d ^c2 | %49
w: que- sto ven-|to, men-|tre di bat' t'in-|tor- n'al fo- co|la- li,|men tre di|bat- t'in tor- n'al|_ fo- co la-|
 d4 A4- | A2 GF G4 | A8- | A4 A4 | B8 | z4 G4 | A2 B2 c3 c | B2 B2 A4 | G8 | z2 c2 d2 d2 | %59
w: li, A-||mor,|_ A-|mor,|con|che mi- ra- co-|lo lo fa-|i,|ch'in foc- c'il|
 e3 d c3 B | A4 G4 | c3 B AG c2- | cB/A/ B2 c4- | c4 z2 c2 | d2 d2 e3 d | cB A2 A2 c2- | %66
w: ten gh'e nol con-|su- mi|ma- * * * *|* * * * i,|_ ch'in|foc- c'il ten- *|* * * gh'e nol|
 cB A2 G2 c2- | c2 B2 A4 | G4 B4 | B4 d4 | c4 B4 | A8 | B8 |] %73
w: _ _ _ con- su-|* mi ma-|i, e|nol con-|su- mi|ma-|i.|
V:2
 D4 E4 | D2 E4 G2 | ^F4 G4 | A8 | A4 G4- | G4 ^F2 E2 | ^F8 | G4 z2 G2 | A4 z2 A2 | _B4 B4 | A4 A4 | %11
w: Que- sti|ch'in- di- tio|fan del|mio|tor- men-|||to, so-|spir so-|spir no|so- no,|
 z2 ^F2 G4 | A4 G4- | G4 ^F4 | G8 | G4 G4 | F2 E4 D2 | E4 G4 | G4 E2 E2- | E2 C2 C4 | E4 F2 E2 | %21
w: ne'i so-|spir- son|_ ta-|li,|quel- l'i'han-|trie- gua tal|hor quel-|l'i'han trie- gua|_ tal hor|io mai no|
 D4 C2 C2 | G3 F E4 | D2 D2 E2 G2 | F4 G4 | z4 c4 | A4 G4 | A4 A2 c2- | c2 c2 _B4- | B4 G4- | %30
w: sen- to, io|mai no sen-|to, io mai no|sen- to,|ch'il|pet- to|mio men la|_ sua pen'-|* es-|
 G4 F4 | G4 G4 | B2 B2 c2 c2 | B4 A2 GA | BG A4 G2- | G2 F2 G2 D2 | E2 D2 E2 F2 | G2 D2 E2 G2 | %38
w: * ha-|li, A-|mor che m'ar- d'il|cor fa que- *|* * * sto|_ ven- to, A-|mor che m'ar- d'il|cor fa que- sto|
 ^F4 G4 | E4 D2 G2 | F2 E2 G2 A2 | A2 G2 ^F4 | G8 | G8 | G8 | G4 F4 | A8 | A8 | A8 | F6 E2 | %50
w: ven- to,|A- mor che|m'ar- d'il cor fa|que- sto ven-|to,|men-|tre|di bat-|t'in-|tor-|n'al|fo- *|
 D4 D4 | E8 | ^F4 F4 | G8 | z8 | z4 C4 | D2 E2 F3 F | E2 E2 D4 | G2 A2 F4 | E4 z2 G2 | %60
w: * fo|la-|li, A-|mor,||con|che mi- ra- co-|lo la fa-|i, lo fa-|i, ch'in|
 ^F2 F2 G3 F | E3 D C2 C2 | G4 E2 E2 | F2 G2 F2 E2 | D4 G2 E2- | E2 F2 F2 G2- | GF E2 D2 CD | %67
w: foc- c'il ten- gh'e|nol con- su- mi|ma- i, e-|nol con- su- mi|ma- i, ch'in|_ foc- c'il ten-|* gh'e nol con- su- *|
 EF G3 G ^F2 | G4 z2 G2 | G4 A4 | A4 G4- | G4 ^F4 | G8 |] %73
w: * * * mi ma-|i, e|nol con-|su- mi|_ ma-|i.|
V:3
 G4 c4 | B2 c4 e2 | d4 d4 | f8- | f4 d4 | d8 | d8 | z2 d2 e4 | z2 e2 f4 | z2 d2 g2 g2 | e4 d2 A2 | %11
w: Que- sti|ch'in- di- tio|fan del|mio|_ tor-|men-|to,|so- spir,|so- spir,|so- spir no|so- no, ne'i|
 d4 z2 d2 | f4 e4 | d8- | d8 | e4 d4 | c2 B4 A2 | B4 e4 | d4 c2 B2- | B2 A2 G4 | z8 | z8 | %22
w: so- spir|son ta-|li,|_|quel- l'i'han|trie- gua tal|hor quel-|l'i'han trie- gua|_ tal hor|||
 G4 A2 c2 | B4 c2 c2 | c2 c2 d4 | e4 g4 | f4 d4 | e4 ^f2 g2- | g2 a2 f4- | f4 d4 | e4 c4 | %31
w: io mai no|sen- to, io|mai no sen-|to, ch'il|pet- to|mio men la|_ sua pen'-|* es-|ha- *|
 d4 z2 d2 | g8 | g4 f2 e2 | d2 f2 e2 d2 | c4 d2 G2 | c2 B2 A2 A2 | G2 B2 c2 G2 | d4 d2 G2 | %39
w: li, A-|mor|che m'ar- d'il|cor fa que- sto|ven- to, A-|mor che m'ar- d'il|cor fa que- sto|ven- to, A-|
 c4 z2 G2 | A2 c2 B2 d2 | c2 B2 A4 | G8 | z2 G2 c2 B2 | c2 d2 e2 e2 | d2 B2 d4 | A4 z2 e2 | %47
w: mor, che|m'ar- d'il cor fa|que- sto ven-|to,|men- tre di|batt- t'in- tor- n'al|fo- co ta-|li, men-|
 f2 e2 d2 c2 | f2 f2 e2 e2 | d6 c2 | _B8 | A8 | z4 d4 | d4 z2 d2 | f2 d2 e3 d | e2 g4 f2 | %56
w: tre di bat- t'in-|tor- n'al fo- co|ta- *||li,|A-|mor, con|che mi- ra- co-|lo lo fa-|
 g2 G2 A3 B | c2 c2 B3 A | BG c3 c B2 | c4 z2 c2 | d2 d2 e3 d | c2 c2 f3 e | d4 c2 A2 | %63
w: i, con che mi-|ra- co- lo _|_ _ _ lo fa-|i, ch'in|foc- c'il ten- gh'e|nol con- su- mi|ma- i, e|
 A2 G2 A2 c2 | B4 c2 c2- | c2 d2 d2 e2- | ed c2 B2 A2- | A2 G2 d4 | G4 d4 | d4 f4 | f4 d4 | d8 | %72
w: nol con- su- mi|ma- i, ch'in|_ foc- c'il ten|_ gh'e nol con- su-|* mi ma-|i, e|nol con-|su- mi|ma-|
 d8 |] %73
w: i.|
V:4
 z8 | z8 | z4 G4 | F8- | F4 G4 | D8 | D8 | z2 G2 E4 | z2 A2 F4 | z2 _B2 G2 G2 | A4 D4 | z2 D2 G4 | %12
w: ||Del|mio|_ tor-|men-|to,|so- spir,|so- spir,|so- spir no|so- no,|ne'i so-|
 F2 F2 c4 | G2 G2 D4 | G8 | c4 B4 | A2 G4 F2 | E4 C4 | G4 A2 E2- | E2 F2 C4 | z8 | G4 A2 c2 | %22
w: spir, ne'i so-|spir son ta-|li,|quel- l'i'han|trie- gua tal|hor quel-|l'i'han trie- gua|_ tal hor||io mai no|
 B4 c2 C2 | G4 C4 | F2 A2 G4 | C4 c4 | d4 _B4 |"^-natural" A4 d2 c2- | c2 A2 _B4- | B4 _B4 | A8 | %31
w: sen- to, io|mai, io|mai no sen-|to, ch'il|pet- to|mio men la|_ sua pen'-|* es-|ha-|
 G8 | z2 G2 c4 | G4 A2 c2 | B2 d2 c2 B2 | A4 G4 | z8 | z8 | D4 G4 | z2 C2 G2 E2 | F2 A2 G2 D2 | %41
w: li,|A- mor|che m'ar- d'il|cor fa que- sto|ven- to,|||A- mor,|A- mor che|m'ar- d'il cor fa|
 F2 G2 D4 | G4 z2 G2 | c2 B2 c2 G2 | C2 G2 E2 C2 | G4 D4 | z2 A2 d2 ^c2 | d2 A2 D2 A2 | F2 D2 A4 | %49
w: que sto ven|to, men-|tre di bat- t'in-|tor- n'al fo- co|ta- li,|men- tre di|ba- t'in- tor- n'al|fo- co ta-|
 D8 | z4 d4- | d2 cB ^c4 | d4 D4 | G4 z2 G2 | A2 B2 c3 B | A2 G2 A4 | G2 G2 D2 F2 | C3 C G3 F | %58
w: li,|A-||mor, A-|mor con|che mi- ra- co-|lo lo fa-|i, con che mi-|ra- co- lo lo|
 E2 F2 D4 | C8 | z8 | z4 F4 | G2 G2 A3 G | F2 E2 D2 C2 | G4 C4 | z8 | z8 | z8 | z4 G4 | G4 D4 | %70
w: fa- * *|i,||ch'in|fo- c'il ten- gh'e|nol con- su- mi|ma- i,||||e|nol con-|
 F4 G4 | D8 | G8 |] %73
w: su- mi|ma-|i.|

